assets/icons/qvision/panorama_photosphere.svg

<svg xmlns="http://www.w3.org/2000/svg" height="24" viewBox="0 0 24 24" width="24"><path d="M0 0h24v24H0z" fill="none"/><path d="M21.4 11.32v2.93c-.1.05-2.17.85-3.33 1.17-.94.26-3.84.73-6.07.73-3.7 0-7-.7-9.16-1.8-.08-.04-.16-.06-.24-.1V9.76c6.02-2.84 12.6-2.92 18.8 0v1.56zm-9.39 8.88c-2.5 0-4.87-1.15-6.41-3.12 4.19 1.22 8.57 1.23 12.82-.01-1.54 1.97-3.9 3.13-6.41 3.13zM12 3.8c2.6 0 4.91 1.23 6.41 3.12-4.1-1.19-8.48-1.26-12.83.01C7.08 5.03 9.4 3.8 12 3.8zm10.49 4.71c-.47-.23-.93-.44-1.4-.64C19.52 4.41 16.05 2 12 2S4.47 4.41 2.9 7.88c-.47.2-.93.41-1.4.63-.31.15-.5.48-.5.83v5.32c0 .35.19.68.51.83.47.23.93.44 1.39.64 3.55 7.83 14.65 7.82 18.2 0 .47-.2.93-.41 1.39-.63.31-.17.51-.49.51-.84V9.34c0-.35-.19-.68-.51-.83z"/></svg>

<svg width="24" height="24" viewBox="0 0 24 24" fill="none" xmlns="http://www.w3.org/2000/svg">
<g clip-path="url(#clip0_147_3641)">
<path d="M21.4 11.32V14.25C21.3 14.3 19.23 15.1 18.07 15.42C17.13 15.68 14.23 16.15 12 16.15C8.3 16.15 5 15.45 2.84 14.35C2.76 14.31 2.68 14.29 2.6 14.25V9.76C8.62 6.92 15.2 6.84 21.4 9.76V11.32ZM12.01 20.2C9.51 20.2 7.14 19.05 5.6 17.08C9.79 18.3 14.17 18.31 18.42 17.07C16.88 19.04 14.52 20.2 12.01 20.2ZM12 3.8C14.6 3.8 16.91 5.03 18.41 6.92C14.31 5.73 9.93 5.66 5.58 6.93C7.08 5.03 9.4 3.8 12 3.8ZM22.49 8.51C22.02 8.28 21.56 8.07 21.09 7.87C19.52 4.41 16.05 2 12 2C7.95 2 4.47 4.41 2.9 7.88C2.43 8.08 1.97 8.29 1.5 8.51C1.19 8.66 1 8.99 1 9.34V14.66C1 15.01 1.19 15.34 1.51 15.49C1.98 15.72 2.44 15.93 2.9 16.13C6.45 23.96 17.55 23.95 21.1 16.13C21.57 15.93 22.03 15.72 22.49 15.5C22.8 15.33 23 15.01 23 14.66V9.34C23 8.99 22.81 8.66 22.49 8.51Z" fill="#323232"/>
</g>
<defs>
<clipPath id="clip0_147_3641">
<rect width="24" height="24" fill="white"/>
</clipPath>
</defs>
</svg>
